lib/healthicons/icons/outline/devices/mobile.svg

<svg fill="none" height="48" viewBox="0 0 48 48" width="48" xmlns="http://www.w3.org/2000/svg"><g clip-rule="evenodd" fill="#333" fill-rule="evenodd"><path d="m31.9635 6.33869-15.9999.0131c-.5523.00045-.9997.44853-.9992 1.00082l.0278 33.99999c.0005.5523.4486.9996 1.0008.9992l16-.0131c.5523-.0005.9997-.4486.9992-1.0008l-.0278-34.00003c-.0005-.55229-.4486-.99964-1.0009-.99918zm-16.0016-1.9869c-1.6568.00136-2.9989 1.3456-2.9975 3.00246l.0278 33.99995c.0014 1.6569 1.3456 2.9989 3.0025 2.9976l16-.0131c1.6568-.0014 2.9989-1.3456 2.9975-3.0025l-.0278-33.99997c-.0014-1.65685-1.3456-2.9989-3.0025-2.99754z"/><path d="m16.9644 7.35107c-.5523.00045-.9996.44853-.9992 1.00082l.0221 27.00001c.0005.5523.4486.9996 1.0008.9992l14-.0115c.5523-.0005.9997-.4485.9992-1.0008l-.0221-27.00002c-.0004-.55228-.4485-.99963-1.0008-.99918zm6.2277 20.18843.0002.0002.7897.6566.7879-.6523.0003-.0003.0159-.0132.0003-.0003c1.5792-1.3151 2.8779-2.3965 3.7843-3.4127.9078-1.0177 1.4059-1.9527 1.4051-2.9705-.0013-1.6563-1.4228-2.9545-3.2332-2.953-1.0242.0008-2.0092.4385-2.6512 1.1293l-.117.1259-.1172-.1257c-.6431-.6898-1.6289-1.1258-2.653-1.125-1.8105.0015-3.2297 1.3021-3.2284 2.9583.0008 1.0179.5006 1.952 1.41 2.9675.9112 1.0175 2.2175 2.0994 3.8063 3.4152z"/><path d="m23.9923 41.3453c1.1046-.0009 1.9993-.8971 1.9984-2.0017-.001-1.1045-.8971-1.9992-2.0017-1.9983s-1.9993.8971-1.9983 2.0016c.0009 1.1046.897 1.9993 2.0016 1.9984z"/></g></svg>

<svg width="48" height="48" viewBox="0 0 48 48" fill="none" xmlns="http://www.w3.org/2000/svg">
<path fill-rule="evenodd" clip-rule="evenodd" d="M31.9635 6.33869L15.9636 6.35179C15.4113 6.35224 14.9639 6.80032 14.9644 7.35261L14.9922 41.3526C14.9927 41.9049 15.4408 42.3522 15.993 42.3518L31.993 42.3387C32.5453 42.3382 32.9927 41.8901 32.9922 41.3379L32.9644 7.33787C32.9639 6.78558 32.5158 6.33823 31.9635 6.33869ZM15.9619 4.35179C14.3051 4.35315 12.963 5.69739 12.9644 7.35425L12.9922 41.3542C12.9936 43.0111 14.3378 44.3531 15.9947 44.3518L31.9947 44.3387C33.6515 44.3373 34.9936 42.9931 34.9922 41.3362L34.9644 7.33623C34.963 5.67938 33.6188 4.33733 31.9619 4.33869L15.9619 4.35179Z" fill="#333333"/>
<path fill-rule="evenodd" clip-rule="evenodd" d="M16.9644 7.35107C16.4121 7.35152 15.9648 7.7996 15.9652 8.35189L15.9873 35.3519C15.9878 35.9042 16.4359 36.3515 16.9881 36.3511L30.9881 36.3396C31.5404 36.3391 31.9878 35.8911 31.9873 35.3388L31.9652 8.33878C31.9648 7.7865 31.5167 7.33915 30.9644 7.3396L16.9644 7.35107ZM23.1921 27.5395L23.1923 27.5397L23.982 28.1963L24.7699 27.544L24.7702 27.5437L24.7861 27.5305L24.7864 27.5302C26.3656 26.2151 27.6643 25.1337 28.5707 24.1175C29.4785 23.0998 29.9766 22.1648 29.9758 21.147C29.9745 19.4907 28.553 18.1925 26.7426 18.194C25.7184 18.1948 24.7334 18.6325 24.0914 19.3233L23.9744 19.4492L23.8572 19.3235C23.2141 18.6337 22.2283 18.1977 21.2042 18.1985C19.3937 18.2 17.9745 19.5006 17.9758 21.1568C17.9766 22.1747 18.4764 23.1088 19.3858 24.1243C20.297 25.1418 21.6033 26.2237 23.1921 27.5395Z" fill="#333333"/>
<path fill-rule="evenodd" clip-rule="evenodd" d="M23.9922 41.3453C25.0968 41.3444 25.9915 40.4482 25.9906 39.3436C25.9897 38.2391 25.0935 37.3444 23.989 37.3453C22.8844 37.3462 21.9897 38.2424 21.9906 39.3469C21.9915 40.4515 22.8877 41.3462 23.9922 41.3453Z" fill="#333333"/>
</svg>
